X: 4810
T: John Cass's Jig
C: Marian Anderson
R: jig
B: RSCDS 48-10
Z: 2015 by John Chambers <jc:trillian.mit.edu>
N: Tune for the dance The Festival Man
M: 6/8
L: 1/8
K: Am
e |\
"Am"AGA "E/Am"c2B | "Am"ABc "F#/D7"de^f | "G"g2B "C"edc | "G"B<dc "G/Em"BAG |\
"Am"AGA "E/Am"c2B | "Am"A2G "C"EDC | "Dm"DED "G#/E7"E<cB | "Am"A3 A2 :|
|: e |\
"Am"Aee "E/Am"e2A | "F"c2B "Dm"AGF | "C"Gcc "C/Am"cde | "Dm"f<ge "B/G7"d2B/A/ |\
"C"Gcc "Am"cde | "Dm"f2A "Em"BAG | "F"Az f "G7"dgB | "F"c3 "C"c2 :|
